X:1
T:Title
%%score { ( 1 3 ) | 2 }
L:1/8
M:6/4
K:G
V:1 treble nm="Grand Piano"
V:3 treble 
V:2 bass 
V:1
 z6 z4[Q:1/4=114] D2 | [DB]3 [CA] [B,G]2 [DB]2 [CA]2 [B,G]2 | [CG]6 [CF]4 [A,CF]2 | %3
 [CFA]3 [B,=F^G] [D^FA]2 [EAc]2 [DGB]2 [CFA]2 | [DGB]6- [DGB]4 [B,G][CA] | %5
 [DB]3 [CA] [B,G]2 [DB]2 [CA]2 [B,G]2 | [CG]6 [CF]4 [CF][CF] | [FA]3 [=F^G] [^FA]2 ^c2 B2 A2 | %8
[M:5/4] [Fd]2- [Fd]2- [Fd]6 |[M:1/4] Bc |[M:6/4] d3 e d2 B2 B2 d2 | c12 | %12
 [Ac]3 [Bd] [Ac]2 [FA]2 [GB]2 [Ac]2 | B12 |[M:13/8] d3 e d2 B3 G2 G2 | %15
 G2 A2 [GB]2 [Gc]3 [Gd]2 [Ge]2 | [Gd]2 [DGB]2 [EAc]2 [DGB]2 [DFB]3 [CFA]2 | %17
[M:5/4] [B,DG]2- [B,DG]2- [B,DG]6 |] %18
V:2
 z6 z4 D,2 | [G,,G,]3 [G,,G,] [G,,G,]2 [G,,D,]2 [G,,D,]2 [G,,D,]2 | [A,,D,]6 [A,,D,]4 D,2 | %3
 D,3 D, D,2 D,2 D,2 D,2 | G,6- G,4 [G,,G,][G,,G,] | %5
 [G,,G,]3 [G,,G,] [G,,G,]2 [G,,D,]2 [G,,D,]2 [G,,D,]2 | [A,,D,]6 [A,,D,]4 [D,A,][D,A,] | %7
 [D,D]3 [D,D] [D,D]2[K:treble] [A,EG]2 [A,DG]2 [A,^CG]2 |[M:5/4][K:bass] [D,D]2- [D,D]2- [D,D]6 | %9
[M:1/4][K:treble] [G,DG][G,A,G] |[M:6/4] [G,B,G]3 [G,CG] [G,B,G]2 [G,DG]2 [G,DG]2 [B,DG]2 | %11
 [A,DF]2[K:bass] [G,D]2 F,>E, [D,D]4 [D,D][D,D] | [D,D]3 [D,D] [D,D]2 [D,D]2 [D,D]2 [D,D]2 | %13
 G,,2 B,,2 [D,D]2[K:treble] [G,D]4 [G,DG][G,A,G] | %14
[M:13/8] [G,B,G]3 [G,CG] [G,B,G]2 [G,DG]3[K:bass] [G,B,D]2 [G,B,D]2 | %15
 [G,B,D]2 [F,CD]2 [=F,D]2 [E,C]3 [D,B,]2 [^C,_B,]2 | [D,B,]2 D,2 D,2 D,2 D,3 D,2 | %17
[M:5/4] G,,2- G,,2- G,,6 |] %18
V:3
 x12 | x12 | x12 | x12 | x12 | x12 | x12 | x12 |[M:5/4] x10 |[M:1/4] x2 |[M:6/4] x12 | %11
 z2 E2 D>G F4 [FA][GB] | x12 | [DG]2 [DG]2 G2 G4 Bc |[M:13/8] x13 | x13 | x13 |[M:5/4] x10 |] %18

